X:1
T:Freeport, 10.10.10.10
T:Freeport, 10.10.10.10
T:Anonymous, 1886
T:Public Domain Courtesy of the Cyber Hymnal™
C:Anonymous, 1886
Z:Public Domain
Z:Courtesy of the Cyber Hymnal™
%%score ( 1 2 ) ( 3 4 )
L:1/8
Q:1/4=117
M:2/2
K:Eb
V:1 treble 
V:2 treble 
V:3 bass 
V:4 bass 
V:1
 [GB]4 [FA]2 [EG]2 | [FA]4 ([EG]2 [DF]2) | [B,E]2 [B,D]2 [B,E]2 [EG]2 | [DF]8 | %4
 ([EG]2 [GB]2) [FA]2 [EG]2 | ([FA]2 [Ac]2) ([GB]2 [FA]2) | [EG]2 [B,F]2 [B,E]2 [B,D]2 | [B,E]8 | %8
 [DF]4 [FA]2 [EG]2 | [DF]4 ([EG]2 [DA]2) | [EB]2 [EG]2 [EA]2 [EB]2 | [Ec]8 | [Ec]4 [EB]2 (cd) | %13
 e6 [Ac]2 | [GB]2 [FA]2 [EG]2 [DF]2 | E8 |] %16
V:2
 x8 | x8 | x8 | x8 | x8 | x8 | x8 | x8 | x8 | x8 | x8 | x8 | x6 A2 | (G2 A2 B2) x2 | x8 | E8 |] %16
V:3
 [E,B,]4 [E,B,]2 [E,B,]2 | B,4 ([E,B,]2 [F,A,]2) | G,2 [F,A,]2 [E,G,]2 [E,B,]2 | [B,,B,]8 | %4
 [E,B,]4 [E,B,]2 [E,B,]2 | [A,,C]4 [A,,C]4 | [B,,B,]2 [B,,A,]2 [B,,G,]2 [B,,F,]2 | [E,G,]8 | %8
 [B,,B,]4 [B,,B,]2 [B,,B,]2 | B,4 B,4 | [E,G,]2 [_D,B,]2 [C,A,]2 [B,,G,]2 | [A,,A,]8 | %12
 A,4 [G,B,]2 [F,B,]2 | B,4 [G,E]2 [A,E]2 | [B,E]2 B,2 [B,,B,]2 [B,,A,]2 | [E,G,]8 |] %16
V:4
 x8 | (B,,2 D,2) x4 | G,2 x6 | x8 | x8 | x8 | x8 | x8 | x8 | (B,,2 A,2) (G,2 F,2) | x8 | x8 | %12
 A,4 x4 | E,2 F,2 x4 | x2 B,2 x4 | x8 |] %16

